assets/icons/makeup.svg

<svg width="30" height="30" viewBox="0 0 30 30" fill="none" xmlns="http://www.w3.org/2000/svg" >
<path stroke-width="0.4" fill-rule="evenodd" clip-rule="evenodd" d="M14.9999 3.13036C9.0561 3.13036 4.26147 7.53565 4.26147 13.8688C4.26147 16.0416 4.82194 17.6053 5.77333 18.7372C5.60121 18.0407 5.48155 17.3322 5.41538 16.6178C5.18617 14.1216 5.76077 12.2298 6.92882 10.8624C8.0843 9.5075 9.75787 8.73823 11.5916 8.35202H11.5994L11.9542 8.28137L12.1426 8.24997L12.5116 8.19189L12.8868 8.14479L13.2683 8.10554L13.4614 8.08827L13.8413 8.06158L14.0328 8.05216L14.2291 8.04274L14.609 8.03175L14.9544 8.02861L15.3375 8.03175L15.7284 8.04274L15.9199 8.05216L16.1162 8.06158L16.4961 8.08827L16.6892 8.10554L17.0613 8.14479L17.4365 8.19189L17.8054 8.24997L17.9938 8.28137L18.3549 8.35202L18.5527 8.39598C20.3409 8.80103 21.9642 9.58443 23.0805 10.9346C24.2061 12.2973 24.7587 14.1655 24.5327 16.6178C24.4635 17.3613 24.3364 18.0983 24.1527 18.822C25.1497 17.6838 25.7384 16.095 25.7384 13.8688C25.7384 7.53565 20.9438 3.13036 14.9999 3.13036ZM3.1311 13.8688C3.1311 6.88255 8.45795 2 14.9999 2C21.5403 2 26.8688 6.88255 26.8688 13.8688C26.8688 17.3604 25.5296 19.6258 23.305 20.9823L21.8449 21.874L22.487 20.2884C22.958 19.125 23.283 17.8549 23.407 16.5126C23.6111 14.2927 23.1056 12.74 22.2091 11.6552C21.3049 10.5609 19.9437 9.87016 18.3047 9.49809H18.3031L18.1257 9.45884L17.7882 9.3929L17.6233 9.36464L17.2779 9.31126L16.9325 9.2673L16.5777 9.23119L16.4035 9.21549L16.0424 9.19037L15.8634 9.18095L15.6829 9.1731L15.3171 9.16211L14.9497 9.15898L14.631 9.16211L14.2652 9.1731L14.0847 9.18095L13.9057 9.19037L13.5446 9.21549L13.3719 9.23119L13.0171 9.2673L12.6701 9.31126L12.3247 9.36464L12.1599 9.3929L11.8208 9.46041C10.1347 9.81364 8.72641 10.4966 7.78758 11.5955C6.86131 12.6835 6.3338 14.2519 6.54104 16.5126C6.66349 17.8392 6.98219 19.0952 7.44533 20.2475L8.09215 21.8552L6.62267 20.9367C4.44044 19.5756 3.1311 17.3196 3.1311 13.8688Z" fill="#485FC7"/>
<path stroke-width="0.4" fill-rule="evenodd" clip-rule="evenodd" d="M14.9529 8.02869L15.3375 8.03175L15.7284 8.04274L15.9199 8.05216L16.1162 8.06158L16.4961 8.08827L16.6892 8.10554L17.0613 8.14479L17.4365 8.19189L17.8054 8.24997L17.9938 8.28137L18.3549 8.35202C20.1902 8.73823 21.8638 9.50758 23.0193 10.8624C24.1858 12.2299 24.7619 14.1217 24.5327 16.6163C24.2625 19.5563 23.092 22.3413 21.1809 24.5917C19.4492 26.6043 17.2403 27.92 15.1366 27.9953H15.1303L15 28L14.8116 27.9953C12.7078 27.9215 10.4989 26.6043 8.76726 24.5917C6.85613 22.3413 5.68563 19.5563 5.41542 16.6163C5.1862 14.1201 5.76077 12.2298 6.92882 10.8624C8.0843 9.5075 9.75787 8.73823 11.5916 8.35202H11.5994L11.9542 8.28137L12.1426 8.24997L12.5116 8.19189L12.8868 8.14479L13.2683 8.10554L13.4614 8.08827L13.8382 8.06166C13.9654 8.05381 14.0941 8.04753 14.2228 8.04282L14.2291 8.04274L14.609 8.03175L14.9544 8.02861L14.9529 8.02869ZM14.9497 9.15898L14.631 9.16211L14.2637 9.17318L13.9073 9.18888L13.5462 9.21557L13.3704 9.23127L13.0171 9.2673L12.6701 9.31126L12.3247 9.36464L12.1599 9.3929L11.8208 9.46041C10.1347 9.81364 8.72641 10.4966 7.78758 11.5955C6.86131 12.6835 6.3338 14.2519 6.54104 16.5126C6.7896 19.2189 7.8663 21.783 9.62445 23.8554C11.2321 25.7236 13.1678 26.8053 14.8461 26.8665L14.9953 26.8681L15.0989 26.8665C16.7787 26.8053 18.7145 25.7236 20.3237 23.8554C22.0818 21.783 23.1585 19.2189 23.407 16.5126C23.6158 14.2519 23.0868 12.6836 22.1605 11.5956C21.2217 10.4966 19.8134 9.81372 18.1273 9.46048L17.7882 9.3929L17.6233 9.36464L17.2779 9.31126L16.9325 9.2673L16.5777 9.23119L16.4035 9.21549L16.0424 9.19037L15.8634 9.18095L15.6829 9.1731L15.3171 9.16211L14.9497 9.15898Z" fill="#485FC7"/>
<path stroke-width="0.4" fill-rule="evenodd" clip-rule="evenodd" d="M17.7207 22.5821C17.7641 22.6424 17.7952 22.7108 17.8121 22.7832C17.8291 22.8556 17.8315 22.9306 17.8194 23.004C17.8073 23.0773 17.7809 23.1476 17.7416 23.2107C17.7023 23.2738 17.6509 23.3285 17.5904 23.3718C16.8391 23.9239 15.9324 24.2245 15 24.2305C14.0676 24.2246 13.1609 23.924 12.4096 23.3718C12.3493 23.3285 12.2981 23.2737 12.259 23.2106C12.2198 23.1476 12.1935 23.0774 12.1814 23.0041C12.1694 22.9309 12.1719 22.856 12.1889 22.7837C12.2058 22.7114 12.2368 22.6432 12.2801 22.5829C12.3234 22.5226 12.3781 22.4714 12.4412 22.4322C12.5043 22.3931 12.5744 22.3667 12.6477 22.3547C12.7209 22.3427 12.7959 22.3452 12.8681 22.3621C12.9404 22.379 13.0087 22.41 13.069 22.4533C13.653 22.8709 14.3092 23.1002 15 23.1002C15.6908 23.1002 16.347 22.8709 16.931 22.4518C16.9914 22.4084 17.0598 22.3773 17.1322 22.3604C17.2045 22.3434 17.2796 22.341 17.3529 22.3531C17.4263 22.3652 17.4965 22.3916 17.5596 22.4309C17.6228 22.4702 17.6775 22.5216 17.7207 22.5821ZM21.4133 16.4687C21.4679 16.5192 21.5121 16.58 21.5432 16.6477C21.5743 16.7153 21.5918 16.7884 21.5946 16.8628C21.5973 16.9372 21.5854 17.0114 21.5594 17.0812C21.5334 17.151 21.4939 17.2149 21.4431 17.2694C20.925 17.8251 20.2703 18.2019 19.5215 18.2019C18.7726 18.2019 18.1179 17.8251 17.5998 17.2678C17.4978 17.1579 17.4437 17.0119 17.4493 16.8621C17.4549 16.7122 17.5197 16.5707 17.6297 16.4687C17.7396 16.3667 17.8855 16.3125 18.0354 16.3181C18.1853 16.3237 18.3268 16.3886 18.4288 16.4985C18.804 16.902 19.1776 17.0715 19.5215 17.0715C19.8669 17.0715 20.2405 16.902 20.6142 16.4985C20.6647 16.4438 20.7255 16.3996 20.7931 16.3685C20.8608 16.3374 20.9339 16.32 21.0083 16.3172C21.0827 16.3144 21.1569 16.3264 21.2267 16.3524C21.2964 16.3784 21.3604 16.4179 21.4148 16.4687H21.4133ZM22.2422 14.9521C22.2856 14.8917 22.3166 14.8234 22.3336 14.751C22.3505 14.6786 22.353 14.6036 22.3409 14.5302C22.3288 14.4569 22.3023 14.3866 22.263 14.3235C22.2237 14.2604 22.1724 14.2057 22.1119 14.1624C21.3606 13.6102 20.4539 13.3096 19.5215 13.3037C18.5716 13.3037 17.6878 13.6208 16.931 14.1624C16.8093 14.2499 16.7272 14.3821 16.7029 14.53C16.6786 14.678 16.7141 14.8295 16.8015 14.9513C16.889 15.0731 17.0212 15.1552 17.1691 15.1795C17.3171 15.2038 17.4686 15.1683 17.5904 15.0808C18.1744 14.6632 18.8307 14.434 19.5215 14.434C20.2122 14.434 20.8685 14.6632 21.4525 15.0808C21.5128 15.1243 21.581 15.1555 21.6534 15.1725C21.7257 15.1896 21.8007 15.1922 21.874 15.1803C21.9474 15.1683 22.0177 15.142 22.0808 15.1029C22.144 15.0637 22.1988 15.0125 22.2422 14.9521ZM13.1993 14.9521C13.2427 14.8917 13.2737 14.8234 13.2907 14.751C13.3076 14.6786 13.3101 14.6036 13.298 14.5302C13.2859 14.4569 13.2594 14.3866 13.2201 14.3235C13.1808 14.2604 13.1295 14.2057 13.069 14.1624C12.3177 13.6102 11.411 13.3096 10.4785 13.3037C9.52873 13.3037 8.64484 13.6208 7.88813 14.1624C7.76634 14.2499 7.68427 14.3821 7.65998 14.53C7.63569 14.678 7.67117 14.8295 7.75861 14.9513C7.84605 15.0731 7.97828 15.1552 8.12623 15.1795C8.27418 15.2038 8.42572 15.1683 8.54751 15.0808C9.13153 14.6632 9.78777 14.434 10.4785 14.434C11.1693 14.434 11.8256 14.6632 12.4096 15.0808C12.4699 15.1243 12.5381 15.1555 12.6105 15.1725C12.6828 15.1896 12.7578 15.1922 12.8311 15.1803C12.9045 15.1683 12.9748 15.142 13.0379 15.1029C13.1011 15.0637 13.1559 15.0125 13.1993 14.9521ZM12.3703 16.4687C12.425 16.5192 12.4692 16.58 12.5003 16.6477C12.5314 16.7153 12.5489 16.7884 12.5516 16.8628C12.5544 16.9372 12.5425 17.0114 12.5165 17.0812C12.4905 17.151 12.4509 17.2149 12.4002 17.2694C11.8821 17.8251 11.2274 18.2019 10.4785 18.2019C9.72968 18.2019 9.07501 17.8251 8.55693 17.2678C8.45491 17.1579 8.40075 17.0119 8.40634 16.8621C8.41194 16.7122 8.47683 16.5707 8.58676 16.4687C8.69668 16.3667 8.84263 16.3125 8.99249 16.3181C9.14235 16.3237 9.28385 16.3886 9.38586 16.4985C9.76108 16.902 10.1347 17.0715 10.4785 17.0715C10.8239 17.0715 11.1976 16.902 11.5712 16.4985C11.6217 16.4438 11.6826 16.3996 11.7502 16.3685C11.8179 16.3374 11.891 16.32 11.9654 16.3172C12.0398 16.3144 12.114 16.3264 12.1838 16.3524C12.2535 16.3784 12.3175 16.4179 12.3719 16.4687H12.3703Z" fill="#485FC7"/>
</svg>

<svg width="30" height="30" fill="none" xmlns="http://www.w3.org/2000/svg"><path fill-rule="evenodd" clip-rule="evenodd" d="M15 3.13C9.056 3.13 4.26 7.536 4.26 13.87c0 2.173.56 3.736 1.512 4.868a14.352 14.352 0 0 1-.358-2.12c-.229-2.495.346-4.387 1.514-5.755 1.155-1.354 2.829-2.124 4.663-2.51h.007l.355-.07.189-.032.369-.058.375-.047.381-.04.193-.017.38-.026.192-.01.196-.01.38-.01.345-.003.383.003.391.01.192.01.196.01.38.026.193.018.372.039.375.047.37.058.188.031.36.071.199.044c1.788.405 3.411 1.188 4.527 2.539 1.126 1.362 1.679 3.23 1.453 5.683-.07.743-.197 1.48-.38 2.204.997-1.138 1.585-2.727 1.585-4.953C25.738 7.536 20.944 3.13 15 3.13ZM3.13 13.87C3.131 6.883 8.458 2 15 2c6.54 0 11.869 4.883 11.869 11.869 0 3.491-1.34 5.757-3.564 7.113l-1.46.892.642-1.586c.471-1.163.796-2.433.92-3.775.204-2.22-.301-3.773-1.198-4.858-.904-1.094-2.265-1.785-3.904-2.157h-.002l-.177-.04-.338-.065-.165-.028-.345-.054-.345-.044-.355-.036-.174-.016-.362-.025-.179-.01-.18-.007-.366-.01-.367-.004-.319.003-.366.011-.18.008-.18.01-.36.024-.173.016-.355.036-.347.044-.345.054-.165.028-.34.067c-1.685.354-3.094 1.037-4.032 2.135-.927 1.088-1.454 2.657-1.247 4.918.122 1.326.441 2.582.904 3.734l.647 1.608-1.47-.918c-2.182-1.361-3.49-3.617-3.49-7.068Z" fill="#485FC7"/><path fill-rule="evenodd" clip-rule="evenodd" d="m14.953 8.029.385.003.39.01.192.01.196.01.38.026.193.018.372.039.375.047.37.058.188.031.36.071c1.836.386 3.51 1.156 4.665 2.51 1.167 1.368 1.743 3.26 1.514 5.754a14.35 14.35 0 0 1-3.352 7.976c-1.732 2.012-3.94 3.328-6.044 3.403h-.007L15 28l-.188-.005c-2.104-.073-4.313-1.39-6.045-3.403a14.35 14.35 0 0 1-3.352-7.976c-.229-2.496.346-4.386 1.514-5.754 1.155-1.354 2.829-2.124 4.663-2.51h.007l.355-.07.189-.032.369-.058.375-.047.381-.04.193-.017.377-.026a15.4 15.4 0 0 1 .385-.02h.006l.38-.01.345-.003h-.001Zm-.003 1.13-.319.003-.367.011-.357.016-.36.027-.177.015-.353.036-.347.044-.345.054-.165.028-.34.067c-1.685.354-3.094 1.037-4.032 2.135-.927 1.088-1.454 2.657-1.247 4.918a13.22 13.22 0 0 0 3.083 7.342c1.608 1.869 3.544 2.95 5.222 3.011l.15.002.103-.002c1.68-.06 3.616-1.142 5.225-3.01a13.22 13.22 0 0 0 3.083-7.343c.209-2.261-.32-3.83-1.247-4.917-.938-1.1-2.347-1.782-4.033-2.136l-.339-.067-.165-.028-.345-.054-.345-.044-.355-.036-.174-.016-.362-.025-.179-.01-.18-.007-.366-.01-.367-.004Z" fill="#485FC7"/><path fill-rule="evenodd" clip-rule="evenodd" d="M17.72 22.582a.564.564 0 0 1-.13.79 4.423 4.423 0 0 1-2.59.858 4.421 4.421 0 0 1-2.59-.858.565.565 0 0 1 .659-.919c.584.418 1.24.647 1.931.647.69 0 1.347-.23 1.931-.648a.565.565 0 0 1 .79.13Zm3.693-6.113a.565.565 0 0 1 .03.8c-.518.556-1.173.933-1.922.933-.748 0-1.403-.377-1.921-.934a.565.565 0 0 1 .829-.77c.375.404.749.573 1.093.573.345 0 .719-.169 1.092-.573a.565.565 0 0 1 .8-.03Zm.83-1.517a.566.566 0 0 0-.131-.79 4.421 4.421 0 0 0-2.59-.858c-.95 0-1.834.317-2.591.858a.566.566 0 0 0 .66.919c.583-.418 1.24-.647 1.93-.647.691 0 1.348.23 1.931.647a.563.563 0 0 0 .79-.129Zm-9.044 0a.566.566 0 0 0-.13-.79 4.421 4.421 0 0 0-2.59-.858c-.95 0-1.834.317-2.59.858a.566.566 0 0 0 .659.919c.584-.418 1.24-.647 1.93-.647.691 0 1.348.23 1.932.647a.563.563 0 0 0 .79-.129Zm-.829 1.517a.564.564 0 0 1 .03.8c-.518.556-1.173.933-1.921.933-.75 0-1.404-.377-1.922-.934a.565.565 0 1 1 .829-.77c.375.404.749.573 1.093.573.345 0 .719-.169 1.092-.573a.565.565 0 0 1 .8-.03Z" fill="#485FC7"/></svg>
